src/assets/icons/icons-origin/LayersOutline.svg

<svg width="24" height="24" viewBox="0 0 24 24" xmlns="http://www.w3.org/2000/svg">
  <path d="M21 11.35C20.9885 11.1641 20.9253 10.985 20.8176 10.8331C20.7098 10.6811 20.5617 10.5623 20.39 10.49L18.24 9.57001L20.5 8.27001C20.6602 8.17785 20.7918 8.04309 20.88 7.88068C20.9683 7.71828 21.0098 7.53459 21 7.35001C20.9885 7.16407 20.9253 6.98503 20.8176 6.83308C20.7098 6.68113 20.5617 6.56231 20.39 6.49001L12.39 3.08001C12.2666 3.02775 12.134 3.00082 12 3.00082C11.866 3.00082 11.7334 3.02775 11.61 3.08001L3.61001 6.49001C3.43832 6.56231 3.29024 6.68113 3.18246 6.83308C3.07468 6.98503 3.01149 7.16407 3.00001 7.35001C2.99018 7.53459 3.03171 7.71828 3.11997 7.88068C3.20824 8.04309 3.33978 8.17785 3.50001 8.27001L5.76001 9.57001L3.61001 10.49C3.43832 10.5623 3.29024 10.6811 3.18246 10.8331C3.07468 10.985 3.01149 11.1641 3.00001 11.35C2.99018 11.5346 3.03171 11.7183 3.11997 11.8807C3.20824 12.0431 3.33978 12.1779 3.50001 12.27L5.76001 13.57L3.61001 14.49C3.43832 14.5623 3.29024 14.6811 3.18246 14.8331C3.07468 14.985 3.01149 15.1641 3.00001 15.35C2.99018 15.5346 3.03171 15.7183 3.11997 15.8807C3.20824 16.0431 3.33978 16.1779 3.50001 16.27L11.5 20.87C11.652 20.9578 11.8245 21.004 12 21.004C12.1755 21.004 12.348 20.9578 12.5 20.87L20.5 16.27C20.6602 16.1779 20.7918 16.0431 20.88 15.8807C20.9683 15.7183 21.0098 15.5346 21 15.35C20.9885 15.1641 20.9253 14.985 20.8176 14.8331C20.7098 14.6811 20.5617 14.5623 20.39 14.49L18.24 13.57L20.5 12.27C20.6602 12.1779 20.7918 12.0431 20.88 11.8807C20.9683 11.7183 21.0098 11.5346 21 11.35ZM12 5.09001L17.76 7.54001L12 10.85L6.24001 7.54001L12 5.09001ZM11.5 12.87C11.652 12.9578 11.8245 13.004 12 13.004C12.1755 13.004 12.348 12.9578 12.5 12.87L16.07 10.87L17.76 11.59L12 14.85L6.24001 11.54L7.93001 10.82L11.5 12.87ZM17.76 15.54L12 18.85L6.24001 15.54L7.93001 14.82L11.5 16.87C11.652 16.9578 11.8245 17.004 12 17.004C12.1755 17.004 12.348 16.9578 12.5 16.87L16.07 14.82L17.76 15.54Z" fill="currentColor" />
</svg>

<svg width="24" height="24" viewBox="0 0 24 24" xmlns="http://www.w3.org/2000/svg">
  <path d="M21 11.35a1 1 0 0 0-.61-.86l-2.15-.92 2.26-1.3a1 1 0 0 0 .5-.92 1 1 0 0 0-.61-.86l-8-3.41a1 1 0 0 0-.78 0l-8 3.41a1 1 0 0 0-.61.86 1 1 0 0 0 .5.92l2.26 1.3-2.15.92a1 1 0 0 0-.61.86 1 1 0 0 0 .5.92l2.26 1.3-2.15.92a1 1 0 0 0-.61.86 1 1 0 0 0 .5.92l8 4.6a1 1 0 0 0 1 0l8-4.6a1 1 0 0 0 .5-.92 1 1 0 0 0-.61-.86l-2.15-.92 2.26-1.3a1 1 0 0 0 .5-.92Zm-9-6.26 5.76 2.45L12 10.85 6.24 7.54 12 5.09Zm-.5 7.78a1 1 0 0 0 1 0l3.57-2 1.69.72L12 14.85l-5.76-3.31 1.69-.72 3.57 2.05Zm6.26 2.67L12 18.85l-5.76-3.31 1.69-.72 3.57 2.05a1 1 0 0 0 1 0l3.57-2.05 1.69.72Z" fill="currentColor"/>
</svg>
